icon-themes/breeze_svg/cmd/sc_wrapmenu.svg

<svg viewBox="0 0 16 16" xmlns="http://www.w3.org/2000/svg"><path d="m2 2v1h12v-1zm0 3v1h1v-1zm11 0v1h1v-1zm-11 2v1h1v-1zm11 0v1h1v-1zm-11 3v1h1v-1zm11 0v1h1v-1zm-11 3v1h12v-1z" fill="#4d4d4d"/><path d="m4 4v8h8v-8z" fill="#1d99f3"/></svg>

<svg xmlns="http://www.w3.org/2000/svg" viewBox="0 0 16 16">
  <path
     style="fill:#4d4d4d"
     d="M 2,2 V 3 H 14 V 2 Z M 2,5 V 6 H 3 V 5 Z m 11,0 v 1 h 1 V 5 Z M 2,7 V 8 H 3 V 7 Z m 11,0 v 1 h 1 V 7 Z M 2,10 v 1 h 1 v -1 z m 11,0 v 1 h 1 V 10 Z M 2,13 v 1 h 12 v -1 z"
     />
  <path
     style="fill:#1d99f3"
     d="M 4 4 L 4 12 L 12 12 L 12 4 L 4 4 z "
     />
</svg>
